X: 452
T: A Tune For The Road
R: reel
M: 4/4
K: Dmajor
A2 Bc|:dF (3FFF AFdF|AFDF EDB,D|A,A,A,B, DEFA|BFAF EDB,D|
dF (3FFF AFdF|AFDF EDB,D|A,A,A,B, DEFA|BFAF DEFA:|
|:defd cdec|dcdB AGFA|GABG FGAB|gfed cdec|
defd cdec|dcdB AGFA|1 GABG FGAF:|2 GECE DEFA||

